Verstka/StarsAndHeart/stars5.svg

<svg id="Layer_1" data-name="Layer 1" xmlns="http://www.w3.org/2000/svg" viewBox="0 0 125 25"><defs><style>.cls-1{fill:#fff;}</style></defs><path class="cls-1" d="M100,0H0V25H125V0ZM19.81,24,12.5,18.59,5.19,24,8,15.22.68,9.78h9L12.5,1l2.79,8.81h9L17,15.22Zm25,0L37.5,18.59,30.19,24,33,15.22l-7.3-5.44h9L37.5,1l2.79,8.81h9L42,15.22Zm25,0L62.5,18.59,55.19,24,58,15.22l-7.3-5.44h9L62.5,1l2.79,8.81h9L67,15.22Zm25,0L87.5,18.59,80.19,24,83,15.22l-7.3-5.44h9L87.5,1l2.79,8.81h9L92,15.22Zm25,0-7.31-5.44L105.19,24,108,15.22l-7.3-5.44h9L112.5,1l2.79,8.81h9L117,15.22Z"/></svg>

<?xml version="1.0" encoding="utf-8"?>
<!-- Generator: Adobe Illustrator 26.0.1, SVG Export Plug-In . SVG Version: 6.00 Build 0)  -->
<svg version="1.1" id="Layer_1" xmlns="http://www.w3.org/2000/svg" xmlns:xlink="http://www.w3.org/1999/xlink" x="0px" y="0px"
	 viewBox="0 0 125 25" style="enable-background:new 0 0 125 25;" xml:space="preserve">
<style type="text/css">
	.st0{fill:#DDDDDD;}
</style>
<path class="st0" d="M100,0H0v25h125V0H100z M19.8,24l-7.3-5.4L5.2,24L8,15.2L0.7,9.8h9L12.5,1l2.8,8.8h9L17,15.2L19.8,24z M44.8,24
	l-7.3-5.4L30.2,24l2.8-8.8l-7.3-5.4h9L37.5,1l2.8,8.8h9L42,15.2L44.8,24z M69.8,24l-7.3-5.4L55.2,24l2.8-8.8l-7.3-5.4h9L62.5,1
	l2.8,8.8h9L67,15.2L69.8,24z M94.8,24l-7.3-5.4L80.2,24l2.8-8.8l-7.3-5.4h9L87.5,1l2.8,8.8h9L92,15.2L94.8,24z M119.8,24l-7.3-5.4
	l-7.3,5.4l2.8-8.8l-7.3-5.4h9l2.8-8.8l2.8,8.8h9l-7.3,5.4L119.8,24z"/>
</svg>
